react/assets/icons/lightbulb.svg

<svg role="img" xmlns="http://www.w3.org/2000/svg" width="48px" height="48px" viewBox="0 0 24 24" aria-labelledby="lightBulbIconTitle" stroke-linecap="square" stroke-linejoin="miter" fill="none"> <title id="lightBulbIconTitle">Light Bulb</title> <path d="M16 12C15.3333333 12.6666667 15 14 15 16L15 17 9 17 9 16C9 14 8.66666667 12.6666667 8 12 5.6739597 9.6739597 5.41421356 6.10050506 7.75735931 3.75735931 10.1005051 1.41421356 13.8994949 1.41421356 16.2426407 3.75735931 18.5857864 6.10050506 18.4068484 9.59315157 16 12zM10 21L14 21"/> </svg>

<svg xmlns="http://www.w3.org/2000/svg" width="48" height="48" viewBox="0 0 24 24" aria-labelledby="lightBulbIconTitle" stroke-linecap="square" fill="none"><path d="M16 12c-.667.667-1 2-1 4v1H9v-1c0-2-.333-3.333-1-4-2.326-2.326-2.586-5.9-.243-8.243a6 6 0 018.486 0C18.586 6.101 18.407 9.593 16 12zm-6 9h4"/></svg>
